X:0
T:no title (number 96)
G:dance song
S:Bartok & Kodaly, Transylvanian Hungarian Folksongs
N:used by Dohnanyi in his suite "Ruralia Hungarica"
M:4/4
L:1/4
Q:1/2=120
K:GDor
% dorian/minor/phrygian pentatonic
g>gfg|fdcd|g>fdc|cdBB |
g>fdc|dcBd|d>dcd|GGGG|]

and from early twentieth-century America (but the chorus changes mode):

